symbols/be/PVR-{60}.svg

<?xml version="1.0" encoding="UTF-8" standalone="no"?>
<!-- Initially created with Inkscape, optimized by hand -->

<svg
   version="1.1"
   width="20"
   height="17.320999"
   id="svg1"
   xmlns="http://www.w3.org/2000/svg"
   xmlns:svg="http://www.w3.org/2000/svg">
  <defs
     id="defs1" />
  <path
     id="Fond"
     d="M 20,17.320999 H 0 L 10,-1.2114258e-6 Z"
     fill="#0b9b7b"
     style="stroke-width:0.1" />
  <path
     style="font-size:10.6667px;font-family:Isonorm;-inkscape-font-specification:'Isonorm, Normal';fill:#ffffff;fill-rule:evenodd;stroke-width:0.377953;stroke-linejoin:bevel"
     d="m 11.77601,14.095819 v -1.429338 c 0,-0.426668 -0.0853,-0.714669 -0.39467,-1.024003 -0.30933,-0.298668 -0.59733,-0.394668 -1.024,-0.394668 H 9.173334 C 9.312001,10.831809 9.429335,10.607808 9.674669,10.234473 10.16534,9.4984708 10.624,9.2958038 10.94401,9.0611358 c 0.16,-0.128 0.18133,-0.373334 0.064,-0.533335 -0.13867,-0.192 -0.352,-0.170667 -0.51201,-0.05333 -0.352,0.277334 -1.023999,0.757336 -1.450667,1.418671 C 8.511998,10.725145 8.223997,11.578481 8.223997,12.666484 v 1.429338 c 0,0.885336 0.885337,1.418671 1.781343,1.418671 0.88533,0 1.77067,-0.533335 1.77067,-1.418671 z m -0.704,-0.02133 c 0,0.501335 -0.57601,0.714669 -1.06667,0.714669 -0.501339,0 -1.066674,-0.213334 -1.066674,-0.714669 v -1.408004 c 0,-0.128 0,-0.202667 0.01067,-0.341334 0.01067,-0.138667 0.032,-0.234668 0.064,-0.362668 h 1.333334 c 0.21333,0 0.352,0.032 0.512,0.181334 0.14934,0.149334 0.21334,0.298667 0.21334,0.512001 z"
     id="text1"
     aria-label="6" />
</svg>

<?xml version="1.0" encoding="UTF-8"?>
<svg xmlns="http://www.w3.org/2000/svg" xmlns:xlink="http://www.w3.org/1999/xlink" width="20" height="17.320999" viewBox="0 0 20 17.320999">
<path fill-rule="nonzero" fill="rgb(4.313725%, 60.784314%, 48.235294%)" fill-opacity="1" d="M 20 17.320312 L 0 17.320312 L 10 0 Z M 20 17.320312 "/>
<path fill-rule="evenodd" fill="rgb(100%, 100%, 100%)" fill-opacity="1" d="M 11.777344 14.097656 L 11.777344 12.667969 C 11.777344 12.238281 11.691406 11.953125 11.382812 11.640625 C 11.070312 11.34375 10.785156 11.246094 10.355469 11.246094 L 9.171875 11.246094 C 9.3125 10.832031 9.429688 10.609375 9.675781 10.234375 C 10.164062 9.5 10.625 9.296875 10.945312 9.0625 C 11.105469 8.933594 11.125 8.6875 11.007812 8.527344 C 10.871094 8.335938 10.65625 8.355469 10.496094 8.472656 C 10.144531 8.75 9.472656 9.230469 9.046875 9.894531 C 8.511719 10.726562 8.222656 11.578125 8.222656 12.667969 L 8.222656 14.097656 C 8.222656 14.980469 9.109375 15.515625 10.003906 15.515625 C 10.890625 15.515625 11.777344 14.980469 11.777344 14.097656 Z M 11.070312 14.074219 C 11.070312 14.574219 10.496094 14.789062 10.003906 14.789062 C 9.503906 14.789062 8.9375 14.574219 8.9375 14.074219 L 8.9375 12.667969 C 8.9375 12.539062 8.9375 12.464844 8.949219 12.324219 C 8.960938 12.1875 8.980469 12.089844 9.011719 11.960938 L 10.347656 11.960938 C 10.558594 11.960938 10.699219 11.996094 10.859375 12.144531 C 11.007812 12.292969 11.070312 12.441406 11.070312 12.65625 Z M 11.070312 14.074219 "/>
</svg>
